X: 376
T: Quanlang canjun
%%abc-version 2.0
%%abcx-abcm2ps-target-version 5.9.1 (29 Sep 2008)
%%abc-creator hum2abc beta
%%abcx-conversion-date 2013/10/02 07:52:30
%%abc-edited-by Helmut Schaffrath
%%humdrum-veritas 2409829768
%%humdrum-veritas-data 2106984521
%%continueall 1
%%barnumbers 0
L: 1/16
M: 2/4
K: G
e2 B d e d B A [I:setbarnb 1]| 
e2 B d e d B A | 
G2> E2 d2 e B | 
d2 B EG4 | 
B e G A B2 d2 | 
G A B B d2 B A | 
B G F E D2 B, D | 
B F E B,D4 | 
B2 d2 z d B A | 
B G F E D2 B, D | 
B F E B,D4 |]  



